**kern	**silbe
*ICvox	*
=1	=1
*D:	*
*M4/4	*
*clefG2	*
1r	.
=2	=2
1r	.
=3	=3
1r	.
=4	=4
1r	.
=5	=5
1r	.
=6	=6
1r	.
=7	=7
1r	.
=8	=8
1r	.
=9	=9
1r	.
=10	=10
8f#	Mid-
[8f#	-night
2f#_	_
8f#]	_
8e	_
=11	=11
4d	_
4r	.
8r	.
8d	and
8d	I'm
8d	a-
=12	=12
8a	-wait-
8a	-ing
8a	on
8a	the
4a	twelve-
4f#	-oh-
=13	=13
4d	-five
4r	.
4r	.
8r	.
[8f#	Hop-
=14	=14
8f#]	_
8f#	-ing
8f#	it-
8f#	-'ll
8f#	take
8f#	me
8f#	just
8f#	a
=15	=15
8f#	litt-
8f#	-le
8f#	far-
8f#	-ther
4e	down
8d	the
[8d	line
=16	=16
4d]	_
4r	.
2r	.
=17	=17
1r	.
=18	=18
8f#	Moon-
[8f#	-light
2f#_	_
8f#]	_
8e	_
=19	=19
4d	_
4r	.
8r	.
8d	You're
8d	just
8d	a
=20	=20
8a	heart-
4.a	-ache
4a	in
4f#	dis-
=21	=21
4d	-guise
4r	.
4r	.
8d	Won't
8d	you
=22	=22
8f#	keep
8f#	my
8f#	heart
8f#	from
8f#	break-
8f#	-ing
8f#	if
8f#	it's
=23	=23
8f#	on-
8f#	-ly
8f#	for
8f#	a
8f#	ver-
8e	-y
4d	short
=24	=24
4d	time
4r	.
2r	.
=25	=25
1r	.
=26	=26
4a	Playin'
8a	with
8a	the
4g	queen
8g	of
[8f#	hearts
=27	=27
8f#]	_
8r	.
4r	.
2r	.
=28	=28
8a	Know-
8a	-in'
8a	it
8a	ain't
8d	reall-
4d	-y
[8g	smart
=29	=29
8g]	_
8r	.
2r	.
8r	.
8f#	The
=30	=30
8g	Jok-
8g	-er
8g	ain't
8g	the
4a	on-
8a	-ly
[8a	fool
=31	=31
4a]	_
4f#	_
4d	_
8r	.
8d	who'd
=32	=32
4g	do
8g	an-
8g	-y-
4c#	-thing
8c#	for
[8d	you
=33	=33
4d]	_
4r	.
2r	.
=34	=34
4a	Layin'
8a	out
8a	a-
4g	-no-
8g	-ther
[8g	lie
=35	=35
8g]	_
4f#	_
8r	.
2r	.
=36	=36
8a	Think-
8a	-in'
8a	'bout
8a	a
4d	life
8d	of
[8g	crime
=37	=37
8g]	_
8r	.
2r	.
8r	.
8f#	'Cause
=38	=38
4g	that's
8g	what
8g	I'll
4a	have
8a	to
[8a	do
=39	=39
4a]	_
4f#	_
4d	_
8r	.
8d	to
=40	=40
4g	keep
8g	me
8g	a-
4c#	-way
8c#	from
[8d	you
=41	=41
4d]	_
4r	.
2r	.
=42	=42
1r	.
=43	=43
8f#	Hon-
[8f#	-ey
2f#_	_
8f#]	_
8e	_
=44	=44
4d	_
4r	.
8r	.
4r	.
8d	You
=45	=45
8a	know
4.a	it
4a	makes
4f#	you
=46	=46
4d	mad
4r	.
4r	.
8e	Why
8d	is
=47	=47
8f#	ev-
8f#	-ery-
8f#	-bod-
8f#	-y
8f#	tell-
8f#	-in
8f#	ev-
8f#	-ery-
=48	=48
8f#	-bod-
8f#	-y
4a	what
8f#	you
4e	have
[8d	done
=49	=49
4d]	_
4r	.
2r	.
=50	=50
1r	.
=51	=51
8f#	Bab-
[8f#	-y
2f#_	_
8f#]	_
8e	_
=52	=52
4d	_
4r	.
8r	.
4r	.
8d	I
=53	=53
8f#	know
4.f#	it
4f#	makes
4e	you
=54	=54
4d	sad
4r	.
8r	.
8d	But
8e	when
8d	they're
=55	=55
8f#	hand-
8f#	-ing
8f#	out
8f#	the
8f#	heart-
8f#	-aches
8f#	you
[8f#	know
=56	=56
8f#]	_
8f#	you
8f#	got
8f#	to
4e	have
8d	you
[8d	some
=57	=57
8d]	_
8r	.
4r	.
2r	.
=58	=58
1r	.
=59	=59
4a	Playin'
8a	with
8a	the
4g	queen
8g	of
[8f#	hearts
=60	=60
8f#]	_
8r	.
4r	.
2r	.
=61	=61
8a	Know-
8a	-in'
8a	it
8a	ain't
8d	reall-
4d	-y
[8g	smart
=62	=62
8g]	_
8r	.
2r	.
4r	.
=63	=63
8g	Jo-
8g	-ker
8g	ain't
8g	the
4a	on-
8a	-ly
[8a	fool
=64	=64
4a]	_
4f#	_
4d	_
8r	.
8d	who'd
=65	=65
4g	do
8g	an-
8g	-y-
4c#	-thing
8c#	for
[8d	you
=66	=66
4d]	_
4r	.
2r	.
=67	=67
4a	Layin'
8a	out
8a	a
4g	no-
8g	-ther
[8g	lie
=68	=68
8g]	_
4f#	_
8r	.
2r	.
=69	=69
8a	Think-
8a	-in'
8a	'bout
8a	a
4d	life
8d	of
[8g	crime
=70	=70
8g]	_
8r	.
2r	.
8r	.
8f#	'Cause
=71	=71
4g	that's
8g	what
8g	I'll
4a	have
8a	to
[8a	do
=72	=72
4a]	_
4f#	_
4d	_
8r	.
8d	to
=73	=73
4g	keep
8g	me
8g	a-
4c#	-way
8c#	from
[8d	you
=74	=74
4d]	_
4r	.
2r	.
=75	=75
1r	.
=76	=76
1r	.
=77	=77
1r	.
=78	=78
1r	.
=79	=79
1r	.
=80	=80
1r	.
=81	=81
1r	.
=82	=82
1r	.
=83	=83
1r	.
=84	=84
1r	.
=85	=85
8e	Lo-
[8f#	-vers
2f#_	_
8f#]	_
8e	_
=86	=86
4d	_
4r	.
8r	.
4r	.
8d	I
=87	=87
8f#	know
4.f#	you've
4f#	had
4e	a
=88	=88
4d	few
4r	.
8r	.
8d	But
8e	hide
8d	your
=89	=89
8f#	heart
8f#	be-
8f#	-neath
8f#	the
8f#	co-
8f#	-vers
8f#	and
[8f#	tell
=90	=90
8f#]	_
8f#	'em
8f#	they're
8f#	the
4e	on-
8d	-ly
[8d	one
=91	=91
4d]	_
4r	.
2r	.
=92	=92
1r	.
=93	=93
8e	O-
[8f#	-thers
2f#_	_
8f#]	_
8e	_
=94	=94
4d	_
4r	.
8r	.
8d	They
8e	just
8d	know
=95	=95
8f#	what
4.f#	I'm
4f#	go-
4e	-ing
=96	=96
4d	through
4r	.
8r	.
8d	And
8e	it's
8d	a-
=97	=97
8f#	-hard
8f#	to
8f#	be
8f#	a
8f#	lo-
8f#	-ver
8f#	when
8f#	you
=98	=98
8f#	say
8f#	you're
8f#	on-
8f#	-ly
8e	in
8d	it
8d	for
[8d	fun
=99	=99
4d]	_
4r	.
2r	.
=100	=100
1r	.
=101	=101
4a	Playin'
8a	with
8a	the
4g	queen
8g	of
[8f#	hearts
=102	=102
8f#]	_
8r	.
4r	.
2r	.
=103	=103
8a	Know-
8a	-in'
8a	it
8a	ain't
8d	reall-
4d	-y
[8g	smart
=104	=104
8g]	_
8r	.
2r	.
8r	.
8f#	The
=105	=105
8g	Jok-
8g	-er
8g	ain't
8g	the
4a	on-
8a	-ly
[8a	fool
=106	=106
4a]	_
4f#	_
4d	_
8r	.
8d	who'd
=107	=107
4g	do
8g	an-
8g	-y-
4c#	-thing
8c#	for
[8d	you
=108	=108
4d]	_
4r	.
2r	.
=109	=109
*E:	*
4b	Playin'
8b	with
8b	the
4a	queen
8a	of
[8g#	hearts
=110	=110
8g#]	_
8r	.
4r	.
2r	.
=111	=111
8b	Know-
8b	-in'
8b	it
8b	ain't
8e	reall-
4e	-y
[8a	smart
=112	=112
8a]	_
8r	.
2r	.
8r	.
8g#	The
=113	=113
8a	Jo-
8a	-ker
8a	ain't
8a	the
4b	on-
8b	-ly
[8b	fool
=114	=114
4b]	_
4g#	_
4e	_
8r	.
8e	who'd
=115	=115
4a	do
8a	an-
8a	-y-
4d#	-thing
8d#	for
[8e	you
=116	=116
4e]	_
4r	.
2r	.
=117	=117
4b	Layin'
8b	out
8b	a-
4a	-no-
8a	-ther
[8a	lie
=118	=118
8a]	_
4g#	_
8r	.
2r	.
=119	=119
8b	Think-
8b	-in'
8b	'bout
8b	a
4e	life
8e	of
[8a	crime
=120	=120
8a]	_
8r	.
2r	.
8r	.
8g#	'Cause
=121	=121
4a	that's
8a	what
8a	I'll
4b	have
8b	to
[8b	do
=122	=122
4b]	_
4g#	_
4e	_
8r	.
8e	to
=123	=123
4a	keep
8a	me
8a	a-
4d#	-way
8d#	from
[8e	you
=124	=124
4e]	_
4r	.
2r	.
=125	=125
1r	.
=126	=126
1r	.
=127	=127
4b	Playin'
8b	with
8b	the
4a	queen
8a	of
[8g#	hearts
=128	=128
8g#]	_
8r	.
4r	.
2r	.
=129	=129
1r	.
=130	=130
1r	.
=131	=131
4b	Playin'
8b	with
8b	the
4a	queen
8a	of
[8g#	hearts
=132	=132
8g#]	_
8r	.
4r	.
2r	.
=133	=133
1r	.
=134	=134
1r	.
=135	=135
4b	Playin'
8b	with
8b	the
4a	queen
8a	of
[8g#	hearts
=136	=136
8g#]	_
8r	.
4r	.
2r	.
=137	=137
1r	.
=138	=138
1r	.
=139	=139
4b	Playin'
8b	with
8b	the
4a	queen
8a	of
[8g#	hearts
=140	=140
8g#]	_
8r	.
4r	.
2r	.
*-	*-
!!!ENC: Nathaniel Condit-Schultz